X:0182
T:Lord Glencairn's Quick Step. W.F.R.
M:2/4
L:1/8
Q:1/4=84
I: :: ::
Z:Jack Campin * www.campin.me.uk * 2009
K:D
d2      cd     |(f/e/)(d/c/) dA|B2  ge         |(a/g/)(f/e/) fd   |
Ad``````cd     |(f/e/)(d/c/) dA|BG``FE         | D2          D2  :|
FD``````DA     | BG``````````GB|AF``Fd         | cA          AB/c/|
d(c/d/) A(d/e/)|(f/e/)(d/c/) de|fg (a/g/)(f/e/)| d2          d2  :|

